symbols/web/hardware/materialsymbolssharp/hardware_wght200grad200_24px.svg

<svg xmlns="http://www.w3.org/2000/svg" height="24" width="24"><path d="M9.3 20.8V7.55H4.275q.1-1.825 1.438-3.088Q7.05 3.2 8.95 3.2h5.7v3.025L17.675 3.2h1.65v7.675h-1.65l-3.025-3.05V20.8Zm3.7-8.825Zm-2.05 7.175H13V12.8h-2.05Zm0-8H13v-6.3H8.95q-.675 0-1.287.262-.613.263-1.063.788h4.35Zm2.05 0V4.85v6.3Zm0 8V12.8v6.35Z"/></svg>

<svg xmlns="http://www.w3.org/2000/svg" height="24" width="24"><path d="M9.3 20.8V7.55H4.275Q4.375 5.725 5.713 4.462Q7.05 3.2 8.95 3.2H14.65V6.225L17.675 3.2H19.325V10.875H17.675L14.65 7.825V20.8ZM13 11.975ZM10.95 19.15H13V12.8H10.95ZM10.95 11.15H13V4.85H8.95Q8.275 4.85 7.663 5.112Q7.05 5.375 6.6 5.9H10.95ZM13 11.15V5.9Q13 5.375 13 5.112Q13 4.85 13 4.85V11.15ZM13 19.15V12.8V19.15Z"/></svg>
